X:1
T:Title
%%score { 1 | 2 }
L:1/8
M:3/4
K:A
V:1 treble nm="Grand Piano"
V:2 bass 
V:1
 z2 z2 z[Q:1/4=100] [CE] | [CF]>[CE] [CA]3 [CE] | F>E B3 E | [CF]>[CE] [Ec]3 [Fd] |[M:5/8] cB- B3 | %5
[M:1/8] E |[M:3/4] [Ec]>[^D=c] [E^c]3 [EB] | [FA]>[DF] [FA]3 F | E>E c3 B | %9
[M:5/8] [DB][CA]- [CA]3 |[M:1/8] [CA] |[M:3/4] B>G E3 E | c>B A3 E | d>d d2 c2 | cB- B3 B | %15
 c>d e3 c | [FB]>[Fc] [Fd]3 B | A>E c3 B |[M:5/8] [DB][CA]- [CA]3 |] %19
V:2
 z2 z2 z [A,,A,] | [A,,A,]>[A,,A,] [A,,E,]3 [A,,A,] | [E,G,D]>[E,G,D] [E,G,D]3 [E,G,D] | %3
 [A,,A,]>[A,,A,] [A,,A,]3 [A,,A,] |[M:5/8] [E,A,E][E,G,E]- [E,G,E]3 |[M:1/8] [E,G,] | %6
[M:3/4] [A,,A,]>[A,,A,] [A,,A,]3 [C,A,] | [D,A,]>[D,A,] [D,A,]3 [D,A,D] | %8
 [E,A,C]>[E,A,C] [E,A,E]3 [E,G,D] |[M:5/8] [A,,E,][A,,E,]- [A,,E,]3 |[M:1/8] [A,,A,] | %11
[M:3/4] [E,G,E]>[E,B,E] [E,G,B,]3 [E,G,] | [A,E]>[A,DE] [A,CE]3 [A,C] | %13
 [G,B,E]>[G,B,E] [G,B,E]2 [A,E]2 | [E,A,E][E,G,E]- [E,G,E]3 [E,G,E] | [A,E]>[A,B,E] [A,CE]3 [A,E] | %16
 [D,D]>[D,A,] [D,A,]3 [D,A,D] | [E,A,C]>[E,A,C] [E,A,E]3 [E,G,D] | %18
[M:5/8] [A,,E,][A,,E,]- [A,,E,]3 |] %19

